X:90
T: Verschlafener Jaeger
N: Q0152G
O: Mitteleuropa, Deutschland / Frankreich, Lothringen, Forbach, Hellimer
R: Ballade, Verfuehrung, Versagen, Spott
M: 3/4
L: 1/8
K: G
D2 | G3AB2 | A2G2F2 | G3AB2 | A4
D2 | G3AB2 | A2G2F2 | G3AB2 | A4
G2 | G3Bc2 | d3ed2 | c2B2A2 | B6 | A4
G2 | G3Bc2 | d3ed2 | c2B2A2 | G4

